!!!OTL: Ode to Joy
!!!COM: Beethoven, Ludwig van
!!!ODT: unknown
!!!YOR: Fake Book of the World's Favorite Songs
!!!YOY: 1990
!!!AST: Classical theme
!!!YEC: Brian Luke, 2001
**kern	**harm
*k[f#]	*k[f#]
*M4/4	*M4/4
*G:	*G:
*>A	*>A
=1	=1
4b	I
4b	.
4cc	.
4dd	.
=2	=2
4dd	V
4cc	.
4b	.
4a	.
=3	=3
4g	vi
4g	.
4a	ii
4b	.
=4	=4
4.b	V
8a	.
2a	.
*>A'	*>A'
=5	=5
4b	I
4b	.
4cc	.
4dd	.
=6	=6
4dd	V
4cc	.
4b	.
4a	.
=7	=7
4g	vi
4g	.
4a	ii
4b	.
=8	=8
4.a	V
8g	.
2g	I;
*>B	*>B
=9	=9
4a	V
4a	.
4b	I
4g	.
=10	=10
4a	V
8b	.
8cc	.
4b	I
4g	.
=11	=11
4a	V
8b	.
8cc	.
4b	V/vi
4a	.
=12	=12
4g	vi
4a	V7/V
4d	V
*>A'	*>A'
[4b	.
=13	=13
4b]	I
4b	.
4cc	.
4dd	.
=14	=14
4dd	V
4cc	.
4b	.
4a	.
=15	=15
4g	vi
4g	.
4a	ii
4b	.
=16	=16
4.a	V
8g	.
2g	I;
*-	*-
